symbolic/32x32/apps/com.github.cassidyjames.dippi.svg

<svg xmlns="http://www.w3.org/2000/svg" width="32" height="32" version="1.1">
 <rect style="opacity:0.2" width="21" height="16" x="-29" y="-24" rx="1.25" ry="1.25" transform="matrix(0,-1,-1,0,0,0)"/>
 <rect style="fill:#8e8e8e" width="21" height="16" x="-28" y="-24" rx="1.25" ry="1.25" transform="matrix(0,-1,-1,0,0,0)"/>
 <rect style="opacity:0.2" width="20" height="26" x="-26" y="-29" rx="1.25" ry="1.25" transform="matrix(0,-1,-1,0,0,0)"/>
 <rect style="fill:#4f4f4f" width="20" height="26" x="-25" y="-29" rx="1.25" ry="1.25" transform="matrix(0,-1,-1,0,0,0)"/>
 <path style="fill:#333333" transform="matrix(0,-1,-1,0,0,0)" d="M -22.463327,-25.971377 -7,-27 l 0,22 -16,0 z"/>
 <path style="fill:#ffffff;opacity:0.1" d="M 4.25 5 C 3.5575 5 3 5.5575 3 6.25 L 3 7.25 C 3 6.5575 3.5575 6 4.25 6 L 27.75 6 C 28.442 6 29 6.5575 29 7.25 L 29 6.25 C 29 5.5575 28.442 5 27.75 5 L 4.25 5 z"/>
 <path style="opacity:0.2" d="M 27,8 5,24 25.871094,24 C 25.871094,24 27,24 27,23 L 27,8 Z m -4,8 0,4 -5,0 5,-4 z"/>
 <path style="fill:#cd3840" d="M 27 7 L 5 23 L 25.871094 23 C 25.871094 23 27 23 27 22 L 27 7 z M 23 15 L 23 19 L 18 19 L 23 15 z"/>
 <path style="fill:#ffffff;opacity:0.2" d="M 27 7 L 5 23 L 6.375 23 L 27 8 L 27 7 z M 19.25 19 L 18 20 L 23 20 L 23 19 L 19.25 19 z"/>
</svg>

<svg xmlns="http://www.w3.org/2000/svg" width="32" height="32"><rect style="opacity:.2" width="21" height="16" x="-29" y="-24" rx="1.25" ry="1.25" transform="matrix(0 -1 -1 0 0 0)"/><rect style="fill:#8e8e8e" width="21" height="16" x="-28" y="-24" rx="1.25" ry="1.25" transform="matrix(0 -1 -1 0 0 0)"/><rect style="opacity:.2" width="20" height="26" x="-26" y="-29" rx="1.25" ry="1.25" transform="matrix(0 -1 -1 0 0 0)"/><rect style="fill:#4f4f4f" width="20" height="26" x="-25" y="-29" rx="1.25" ry="1.25" transform="matrix(0 -1 -1 0 0 0)"/><path style="fill:#333" transform="matrix(0 -1 -1 0 0 0)" d="M-22.463-25.971-7-27v22h-16z"/><path style="fill:#fff;opacity:.1" d="M4.25 5C3.558 5 3 5.558 3 6.25v1C3 6.558 3.558 6 4.25 6h23.5c.692 0 1.25.558 1.25 1.25v-1C29 5.558 28.442 5 27.75 5H4.25z"/><path style="opacity:.2" d="M27 8 5 24h20.871S27 24 27 23V8zm-4 8v4h-5l5-4z"/><path style="fill:#cd3840" d="M27 7 5 23h20.871S27 23 27 22V7zm-4 8v4h-5l5-4z"/><path style="fill:#fff;opacity:.2" d="M27 7 5 23h1.375L27 8V7zm-7.75 12L18 20h5v-1h-3.75z"/></svg>
